X:1
T:De Reef, 10.10.10.10
T:De Reef, 10.10.10.10
T:R. E. De Reef, 1906
T:Public Domain Courtesy of the Cyber Hymnal™
C:R. E. De Reef, 1906
Z:Public Domain
Z:Courtesy of the Cyber Hymnal™
%%score ( 1 2 ) ( 3 4 )
L:1/8
Q:1/4=85
M:4/4
K:Eb
V:1 treble 
V:2 treble 
V:3 bass 
V:4 bass 
V:1
 [EG]2 [FG][FG] [EG]2 [CE]2 | [EF][EG][EA][DA] G4 | [EG]2 [EG][E=A] [DB]2 [EG]2 | %3
 [DF][DF][EG][E=A] [DB]4 | [EB]2 [=EA][EG] [FA]2 [_EG]2 | [EF][EG][FA][FA] [FA]4 | %6
 [EG]2 [DF][DF] [DG]2 E2 | [EF][EG][EA][DF] E4 |] %8
V:2
 x8 | x4 E2 F2 | x8 | x8 | x8 | x8 | x6 E2 | x4 E4 |] %8
V:3
 [E,B,]2 [D,=B,][D,B,] [C,C]2 [C,G,]2 | [A,C][G,C][F,C][B,,B,] [E,B,]2 [D,=B,]2 | %2
 [C,C]2 [C,C][C,F,] [B,,F,]2 [E,C]2 | [F,B,][F,B,][F,B,][F,C] B,2 A,2 | %4
 [E,G,]2 [C,B,][C,B,] [F,C]2 [G,C]2 | [A,C][G,C][F,C][E,C] [D,B,]4 | %6
 [E,B,]2 B,[A,_B,] [G,=B,]2 [A,C]2 | [A,C][G,C][F,C][B,,A,] [E,G,]4 |] %8
V:4
 x8 | x8 | x8 | x4 B,,4 | x8 | x8 | x2 =B, x5 | x8 |] %8

